X:1
T:A Prophet-Woman Broke a Jar
T:A Prophet-Woman Broke a Jar
T:Robert Lowry, 1869, alt.
T:Brian Wren, 1991
T:© 1993 Hope Publishing Company, Carol Stream, IL 60188. All rights reserved. Courtesy of the Cyber Hymnal™
T:© 1993 Hope Publishing Company, Carol Stream, IL 60188. All rights reserved. Courtesy of the Cyber Hymnal™
C:Robert Lowry, 1869, alt.
Z:© 1993 Hope Publishing Company, Carol Stream, IL 60188. All rights reserved.
Z:Courtesy of the Cyber Hymnal™
%%score ( 1 2 ) ( 3 4 )
L:1/8
Q:1/4=145
M:none
K:G
V:1 treble 
V:2 treble 
V:3 bass 
V:4 bass 
V:1
 D2 | [DG]2 [DA]2 [GB]6 [DG]2 | [EA]2 [EG]2 [CE]6 D2 | [DG]2 [GB]2 [Gd]6 [GB]2 | %4
w: 1.~A|proph- et- wo- man|broke a jar, By|Love’s di- vine ap-|
w: 2.~A|faith- ful wo- man|left a tomb By|Love’s di- vine com-|
w: 3.~Though|wo- man- wis- dom,|wo- man- truth, For|cen- tu- ries were|
w: 4.~The|Spir- it knows; the|Spir- it calls, By|Love’s di- vine or-|
 [GB]2 [FA]4- [FA]4 D2 | [DG]2 [FA]2 [GB]6 [DG]2 | [EA]2 [EG]2 [CE]6 [B,D]2 | %7
w: point- ing, * With|rare per- fume she|filled the room, Pre-|
w: mis- sion. * She|saw; she heard; she|preached the Word, A-|
w: hid- den, * Un-|sung, un- writ- ten,|and un- heard, De-|
w: dain- ing, * The|friends we need, to|serve and lead, Their|
 D2 [DG]2 [GB]6 [DA]2 | [DA]2 [DG]6 z2 [GB]2 | [Bd]2 [Bd]2 [Bd]2 [GB]2 | [FA]2 [FB]2 [EG]6 [FA]2 | %11
w: sid- ing and a-|noint- ing. A|proph- et- wo- man|broke a jar, The|
w: ris- ing from sub-|mis- sion. A|faith- ful wo- man|left a tomb, With|
w: rid- ed and for-|bid- den, The|Spir- it’s breath, the|Spir- it’s fire, On|
w: power and gifts un-|chain- ing. The|Spir- it knows, the|Spir- it calls, From|
 [GB]2 [GB]2 [GB]6 [FA]2 | [GB]2 [Bd]4- [Bd]4 [GB]2 | [Gd]2 [Gd]2 [Gd]2 (BA) | %14
w: sneers of scorn de-|fy- ing, * With|rare per- fume she *|
w: res- ur- rec- tion|gos- pel. * She|saw; she heard; she *|
w: free and slave des-|cend- ing, * Can|tum- ble our di- *|
w: wo- men, men, and|child- ren, * The|friends we need, to *|
 [EG]2 [CE]2 [B,D]6 D2 | [EG]2 [FA]2 [GB]6 [FA]2 | [FA]2 G8 |] %17
w: filled the room, Pre-|par- ing Christ for|dy- ing.|
w: preached the Word, A-|pos- tle to a-|pos- tles.|
w: vid- ingwalls, Our shame|and sad- ness mend-|ing. *|
w: serve and lead. Re-|joice, and make them|wel- come!|
V:2
 D2 | x12 | x10 D2 | x12 | x10 D2 | x12 | x12 | D2 x10 | x12 | x8 | x12 | x12 | x12 | x6 G2 | %14
 x10 D2 | x12 | x2 G8 |] %17
V:3
 D,2 | [G,B,]2 [G,C]2 [G,D]6 [G,B,]2 | [C,C]2 [C,C]2 [C,G,]6 D,2 | [G,B,]2 [G,D]2 [G,B,]6 [G,D]2 | %4
 [D,D]2 [D,D]4- [D,D]4 D,2 | [B,,G,]2 [D,D]2 [G,D]6 [G,B,]2 | [C,C]2 [C,C]2 [C,G,]6 [D,G,]2 | %7
 [B,,G,]2 [G,,B,]2 [D,D]6 [D,C]2 | [G,,C]2 [G,,B,]6 z2 G,2 | G,2 G,2 G,2 [G,D]2 | %10
 [D,D]2 [D,D]2 [E,B,]6 [D,D]2 | [G,D]2 [G,D]2 [G,D]6 [D,D]2 | [G,D]2 [G,D]4- [G,D]4 [G,D]2 | %13
 [G,B,]2 [A,C]2 [B,D]2 [G,D]2 | [C,C]2 [C,G,]2 G,6 G,2 | [E,B,]2 [D,C]2 [D,D]6 [D,C]2 | %16
 [G,,C]2 [G,,B,]8 |] %17
V:4
 D,2 | x12 | x10 D,2 | x12 | x10 D,2 | x12 | x12 | x12 | x10 G,2 | G,2 G,2 G,2 x2 | x12 | x12 | %12
 x12 | x8 | x4 G,6 G,2 | x12 | x10 |] %17

